packages/icons/raw/shadcn/flower-2.svg

<svg width="24" height="24" viewBox="0 0 24 24" fill="none" xmlns="http://www.w3.org/2000/svg">
<path d="M12 5C12 4.40666 12.1759 3.82664 12.5056 3.33329C12.8352 2.83994 13.3038 2.45543 13.852 2.22836C14.4001 2.0013 15.0033 1.94189 15.5853 2.05765C16.1672 2.1734 16.7018 2.45912 17.1213 2.87868C17.5409 3.29824 17.8266 3.83279 17.9424 4.41473C18.0581 4.99667 17.9987 5.59987 17.7716 6.14805C17.5446 6.69623 17.1601 7.16477 16.6667 7.49441C16.1734 7.82405 15.5933 8 15 8M12 5C12 4.40666 11.8241 3.82664 11.4944 3.33329C11.1648 2.83994 10.6962 2.45543 10.1481 2.22836C9.59987 2.0013 8.99667 1.94189 8.41473 2.05765C7.83279 2.1734 7.29824 2.45912 6.87868 2.87868C6.45912 3.29824 6.1734 3.83279 6.05765 4.41473C5.94189 4.99667 6.0013 5.59987 6.22836 6.14805C6.45543 6.69623 6.83994 7.16477 7.33329 7.49441C7.82664 7.82405 8.40666 8 9 8M12 5V6M15 8C15.5933 8 16.1734 8.17595 16.6667 8.50559C17.1601 8.83524 17.5446 9.30377 17.7716 9.85195C17.9987 10.4001 18.0581 11.0033 17.9424 11.5853C17.8266 12.1672 17.5409 12.7018 17.1213 13.1213C16.7018 13.5409 16.1672 13.8266 15.5853 13.9424C15.0033 14.0581 14.4001 13.9987 13.852 13.7716C13.3038 13.5446 12.8352 13.1601 12.5056 12.6667C12.1759 12.1734 12 11.5933 12 11M15 8H14M9 8C8.40666 8 7.82664 8.17595 7.33329 8.50559C6.83994 8.83524 6.45543 9.30377 6.22836 9.85195C6.0013 10.4001 5.94189 11.0033 6.05765 11.5853C6.1734 12.1672 6.45912 12.7018 6.87868 13.1213C7.29824 13.5409 7.83279 13.8266 8.41473 13.9424C8.99667 14.0581 9.59987 13.9987 10.1481 13.7716C10.6962 13.5446 11.1648 13.1601 11.4944 12.6667C11.8241 12.1734 12 11.5933 12 11M9 8H10M12 11V10" stroke="black" stroke-width="2" stroke-linecap="round" stroke-linejoin="round"/>
<path d="M12 10C13.1046 10 14 9.10457 14 8C14 6.89543 13.1046 6 12 6C10.8954 6 10 6.89543 10 8C10 9.10457 10.8954 10 12 10Z" stroke="black" stroke-width="2" stroke-linecap="round" stroke-linejoin="round"/>
<path d="M12 10V22" stroke="black" stroke-width="2" stroke-linecap="round" stroke-linejoin="round"/>
<path d="M12 22C16.2 22 19 20.333 19 17C14.8 17 12 18.667 12 22Z" stroke="black" stroke-width="2" stroke-linecap="round" stroke-linejoin="round"/>
<path d="M12 22C7.8 22 5 20.333 5 17C9.2 17 12 18.667 12 22Z" stroke="black" stroke-width="2" stroke-linecap="round" stroke-linejoin="round"/>
</svg>

<!-- @license lucide-static v1.23.0 - ISC -->
<svg
  class="lucide lucide-flower-2"
  xmlns="http://www.w3.org/2000/svg"
  width="24"
  height="24"
  viewBox="0 0 24 24"
  fill="none"
  stroke="currentColor"
  stroke-width="2"
  stroke-linecap="round"
  stroke-linejoin="round"
>
  <path d="M12 5a3 3 0 1 1 3 3m-3-3a3 3 0 1 0-3 3m3-3v1M9 8a3 3 0 1 0 3 3M9 8h1m5 0a3 3 0 1 1-3 3m3-3h-1m-2 3v-1" />
  <circle cx="12" cy="8" r="2" />
  <path d="M12 10v12" />
  <path d="M12 22c4.2 0 7-1.667 7-5-4.2 0-7 1.667-7 5Z" />
  <path d="M12 22c-4.2 0-7-1.667-7-5 4.2 0 7 1.667 7 5Z" />
</svg>
